X: 2027
T: Miffs Tune
B: steve tunes
M:4/4
Q: 1/4=100
K:Gm
V:1 
d>c |:"Gm"B>A G>F G>A B>c |d2G2 G>b a>g|"F"f2 f>d B>c d>B|c2 (3BAG F2 d>c|
 "Gm"B>A G>F G>A B>c| dg (3fga g2 d2|"F"e>d c>B c>e d>c|1 "Gm"B2 G2 G2 d>c:|2"Gm"  B2 G2 G4||
|:"Gm"b>gd>B g>dB>G|D>GB>d g>ba>g|"F"a>fc>A f>cA>F|C>FA>c f>cA>c|
"Gm"B>A G>F G>A B>c| d>g (3fga g2 d2|"Eb"e>d c>B "F"c>e d>c|"Gm" B2 G2 G4:|
W: 
% abcbook-tune_id 62a420d18cdef4d49eb7de4c


% abcbook-boost 0
% abcbook-tablature 
% abcbook-transpose 
% abcbook-lastupdated 1654966357048
% abcbook-soundfonts 
% abcbook-repeats 3


